X: 873
T: Is It the Priest You Want?
B:O'Neill's 873
Z:Transcribed by Dan G. Petersen, dangp@post6.tele.dk
M:6/8
L:1/8
K:G
e|edB d2B|{^c}d2B B2e|{f}edB d2B|{d}c2A A2e|
edB d2B|{^c}d2B B2e|{f}edB {a}gfg|BGG G2:|
f|g2g (f/g/a)f|{a}g2e e2e|a2a {b}aga|b2e e2f|
g2g (f/g/a)f|g2e e2e|{f}edB {a}gfg|BGG G2:|


